app/component-library/components/Icons/Icon/assets/bank.svg

<svg width="24" height="24" viewBox="0 0 24 24" fill="none" xmlns="http://www.w3.org/2000/svg">
<path d="M22.2808 19V22H2.28076V19C2.28076 18.45 2.73076 18 3.28076 18H21.2808C21.8308 18 22.2808 18.45 22.2808 19Z" fill="currentColor"/>
<path d="M7.28076 11H5.28076V18H7.28076V11Z" fill="currentColor"/>
<path d="M11.2808 11H9.28076V18H11.2808V11Z" fill="currentColor"/>
<path d="M15.2808 11H13.2808V18H15.2808V11Z" fill="currentColor"/>
<path d="M19.2808 11H17.2808V18H19.2808V11Z" fill="currentColor"/>
<path d="M23.2808 22.75H1.28076C0.870762 22.75 0.530762 22.41 0.530762 22C0.530762 21.59 0.870762 21.25 1.28076 21.25H23.2808C23.6908 21.25 24.0308 21.59 24.0308 22C24.0308 22.41 23.6908 22.75 23.2808 22.75Z" fill="currentColor"/>
<path d="M21.6508 5.74984L12.6508 2.14984C12.4508 2.06984 12.1108 2.06984 11.9108 2.14984L2.91076 5.74984C2.56076 5.88984 2.28076 6.29984 2.28076 6.67984V9.99984C2.28076 10.5498 2.73076 10.9998 3.28076 10.9998H21.2808C21.8308 10.9998 22.2808 10.5498 22.2808 9.99984V6.67984C22.2808 6.29984 22.0008 5.88984 21.6508 5.74984ZM12.2808 8.49984C11.4508 8.49984 10.7808 7.82984 10.7808 6.99984C10.7808 6.16984 11.4508 5.49984 12.2808 5.49984C13.1108 5.49984 13.7808 6.16984 13.7808 6.99984C13.7808 7.82984 13.1108 8.49984 12.2808 8.49984Z" fill="currentColor"/>
</svg>

<svg xmlns="http://www.w3.org/2000/svg" width="24" height="24" viewBox="0 0 24 24" fill="none"><path d="M22.28 19v3h-20v-3c0-.55.45-1 1-1h18c.55 0 1 .45 1 1zM7.28 11h-2v7h2v-7zM11.28 11h-2v7h2v-7zM15.28 11h-2v7h2v-7zM19.28 11h-2v7h2v-7z" fill="currentColor"/><path d="M23.28 22.75h-22c-.41 0-.75-.34-.75-.75s.34-.75.75-.75h22c.41 0 .75.34.75.75s-.34.75-.75.75zM21.65 5.75l-9-3.6c-.2-.08-.54-.08-.74 0l-9 3.6c-.35.14-.63.55-.63.93V10c0 .55.45 1 1 1h18c.55 0 1-.45 1-1V6.68c0-.38-.28-.79-.63-.93zM12.28 8.5c-.83 0-1.5-.67-1.5-1.5s.67-1.5 1.5-1.5 1.5.67 1.5 1.5-.67 1.5-1.5 1.5z" fill="currentColor"/></svg>
